X: 1
T: Islay Rant
C: Charlie McKerron
Z: DaveF
S: https://thesession.org/tunes/1688#setting33514
R: reel
M: 4/4
L: 1/8
K: Ador
|EAAB cgcd|~e2 ed eAAf|g2 gf gBBA|GA (3BAG cABG|
EAAB cgcd|~e2 ed eAAf|g2 gf gBBA|1 GA (3BAG A2 BG:|2 GA (3BAG A3 g ]|
|:a2 ab aged|eA (3AAA eAfA|g2 gf gBBA|GA (3BAG cABG|
[1 ^cA (3AAA cAdA|eA (3AAA eAfA|g2 gf gBBA|GA (3BAG ~A3:|
[2 EAAB cgcd|~e2 ed eAAf|g2 gf gBBA|GA (3BAG cABG||"^Ending"GA (3BAG HA2||

